icons/htmx.svg

<svg xmlns="http://www.w3.org/2000/svg" width="142.4" height="84.4" xmlns:v="https://vecta.io/nano"><path d="M89 2.5L60.8 84.4l-7.4-2.5L81.6 0 89 2.5zM36.4 58.8l-4.5 7.1L0 45.9v-5.7l32-20.1 4.4 7L10.5 43l25.9 15.8zm106-12.9l-31.9 20-4.5-7.1L131.9 43 106 27.1l4.4-7 32 20.1v5.7z" vector-effect="non-scaling-stroke" fill-rule="evenodd" stroke="#000" stroke-width=".25mm"/></svg>

<svg width="142.4" height="84.4" viewBox="0 0 142.4 84.4" xmlns="http://www.w3.org/2000/svg"><g id="svgGroup" stroke-linecap="round" fill-rule="evenodd" font-size="9pt" stroke="#000" stroke-width="0.25mm" fill="#000" style="stroke:#000;stroke-width:0.25mm;fill:#000"><path d="M 89 2.5 L 60.8 84.4 L 53.4 81.9 L 81.6 0 L 89 2.5 Z M 36.4 58.8 L 31.9 65.9 L 0 45.9 L 0 40.2 L 32 20.1 L 36.4 27.1 L 10.5 43 L 36.4 58.8 Z M 142.4 45.9 L 110.5 65.9 L 106 58.8 L 131.9 43 L 106 27.1 L 110.4 20.1 L 142.4 40.2 L 142.4 45.9 Z" vector-effect="non-scaling-stroke"/></g></svg>
